!!!COM: Music21
!!!OTL: strathspey_Spring-The-Summer-Long
!!!OMV: strathspey_Spring-The-Summer-Long
**kern
*clefG2
*k[b-]
*F:
*M4/4
=1
4.f
8f
4g
4a
=
4.ff
8ee
8dd
4.cc
=
4cc
4a
4ff
4a
=
4.g
8f
8g
4.a
=
4.f
8f
4g
4a
=
4.ff
8gg
4.aa
8gg
=
8ff
4.a
4.g
8f
!!linebreak:original
=
1g
=||
*M4/4
4.f
8f
4g
4a
=
4.ff
8ee
8dd
4.cc
=
4cc
4a
4ff
4a
=
4.g
8f
8g
4.a
=
4.f
8f
4g
4a
=
4.ff
8gg
4.aa
8gg
!!linebreak:original
=
8ff
4.a
4.g
8f
=
1f
=||
2ff
4.ff
8ee
=
4.dd
8cc
8dd
4.ff
=
4cc
4a
4ff
4cc
=
4.dd
8g
8a
4.g
=
2ff
4.ff
8ee
=
4dd
4cc
4.ff
8gg
!!linebreak:original
=
4.aa
8gg
8ff
4.ee
=
1ff
=
2ff
4.ff
8ee
=
4.dd
8cc
8dd
4.gg
=
8ff
4.dd
4cc
4a
=
4.dd
8g
8a
4.g
=
4.f
8f
4g
4a
=
4.ff
8gg
4.aa
8gg
!!linebreak:original
=
8ff
4.a
4.g
8f
=
1f
=||
*-
